X:1
T:018 - Amor Sem Igual
T:Letra: Stuart Edmund McNair (1867-1959)
T:Música: Anônimo
M:4/4
L:1/8
Q:1/4=100
K:Emaj
V:1
B,2 | "E"E2 EE G2 FE | "B7"B2 BB "E"HB2 B2 | "A"c2 BA "E"G2 FE | "B"HF6 B,2 | "E"E2 EE G2 FE | "B7"D2 EF "E"HE2 G2 | "F#7"F2 FF dc G^A | "B"HB2 z4 || B2| "E"B8- | "B"B6 B2 | "E"B8- | B6 z G | B2 GB e3 B | cB AG "B"HF2 (FG) | "B7"A2 GA c2 B>D | "E"HE4 z |]
w: 1.~Oh! Não tens ou-vi-do doa-mor sem i-gual, Doa-mor que teu Deus tem por ti?! Doa-mor queo le-vou a seu Fi-lhoen-tre-gar, Pra os sal-vos le-var pa-ra si?! Oh, crê!_ Oh, crê!_  A gra-ça de Deus te cha_ma dos céus. Oh,_ crê nes-sea-mor sem i-gual!
w: 2.~Não fo-ram os gran-des que Cris-to cha-mou, Nem jus-tos veio E-le sal-var; Mas po-bres e fra-cos, cul-pa-dos e maus Man-dou pe-los ser-vos cha-mar.  
w: 3.~O ho-mem, po-rém, não po-dia che-gar À san-ta pre-sen-ça de Deus; Por-que seus pe-ca-dos, qual gran-de mon-tão, Ven-da-vam-lhea en-tra-da nos céus.  
w: 4.~Mas pe-lo seu san-gue Je-sus ex-piou A cul-pa dos cren-tes na cruz; Ti-ran-doo pe-ca-do, ca-mi-nho mos-trou, O qual pa-rao céu nos con-duz.  
w: 5.~E tu, pe-ca-dor, não de-se-jas, en-tão, O a-mor do teu Deus co-nhe-cer? Por fé no Se-nhor, co-mo teu Sal-va-dor, I-rás al-can-çar tal pra-zer.             				                    
W: 
W: 
W: 
W: 1. Oh! Não tens ouvido do amor sem igual,
W: Do amor que teu Deus tem por ti?!
W: Do amor que o levou a seu Filho entregar,
W: Pra os salvos levar para si?!
W: 
W:    (Estribilho)
W:    Oh, crê! Oh, crê!
W:    A graça de Deus te chama dos céus.    
W:    Oh, crê nesse amor sem igual!
W: 
W: 2. Não foram os grandes que Cristo chamou,
W: Nem justos veio Ele salvar;
W: Mas pobres e fracos, culpados e maus
W: Mandou pelos servos chamar.
W: 
W: 
W: 
W: 
W: 3. O homem, porém, não podia chegar
W: À santa presença de Deus;
W: Porque seus pecados, qual grande montão,
W: Vendavam-lhe a entrada nos céus.
W: 
W: 4. Mas pelo seu sangue Jesus expiou
W: A culpa dos crentes na cruz;
W: Tirando o pecado, caminho mostrou,
W: O qual para o céu nos conduz.
W: 
W: 5. E tu, pecador, não desejas, então,
W: O amor do teu Deus conhecer?
W: Por fé no Senhor, como teu Salvador,
W: Irás alcançar tal prazer.
W: 
W: 
W: 
W:         
W: 				         
W:           





%wordsfont Times-Roman 13.0
%vocalfont Times-Roman 13.0
